X: 1510
T: Polonäs ur Anders Fredrik Alards notbok nr 21
S: efter Anders Fredrik Alard
B: Anders Fredrik Alards notbok
M: 3/4
L: 1/16
B: [[http://www.smus.se/earkiv/fmk/browselarge.php?lang=sw&katalogid=M+131&bildnr=00010|SMUS - katalog M131 bild 10]] nr 21
B: Jämför [[Notböcker/John Johanssons noter]] [[http://www.sormlandsmusikarkiv.se/noter/johansson_john/john_johansson.html|samling 2]] (sida 57 polonäs nr 36)
N: Se även [[Musik/1966|+]]
N: Det verkar även finnas en [[http://www.vff.nu/noter_files/Polska_fran_Hult.pdf|uppteckning från Hult]] ur en handskrift från 1842 skriven av kantor [[Personer/S S Rosén]]
O: Östergötland
R: Polonäs
Z: Nils L
K: G
GABc d2ef g2g2 | fafd ege^c d4 | d2dB cBcA B2B2 | AcAF G2D2 B,2D2 |
GABc d2ef g2g2 | fafd ege^c d4 | d2dB c2cA B2B2 | AcAF G4 G4 ::
BdBG AcAF G2G2 | BdBG AcAF G4 | BdBG AcAF G2G2 | BdBG AcAF G4 |
GABc d2ef g2g2 | fafd ege^c d4 | d2dB cBcA B2B2 | AcAF G4 G4 :|
(:musicend:)
(:music:)
